X: 41
T: No_138_My_Body_Lies_in_the_East.krn
%%abc-version 2.0
%%abcx-abcm2ps-target-version 5.9.1 (29 Sep 2008)
%%abc-creator hum2abc beta
%%abcx-conversion-date 2020/08/10 18:54:57
%%gracespace 0 6 6
%%humdrum-veritas 1744663809
%%humdrum-veritas-data 2572985645
%%linebreak <none>
%%barnumbers 0
L: 1/8
M: 2/4
%%staves {1 2}
V: 1 clef=bass
V: 2 clef=bass
K: Ab
[V:1] [K:clef=bass][M:2/4]z C CC | 
[V:2] [K:clef=bass][M:2/4]z G,, G,,G,, | 
[V:1] C3D | 
[V:2] G,,G,, G,,G,, | 
[V:1] C2(3CCC | 
[V:2] z4 | 
[V:1] A,>C (3CCC | 
[V:2] z4 | 
[V:1] A,3F, ||  
[V:2] z4 ||  
[V:1] [M:3/4]F,6 | 
[V:2] [M:3/4]z6 | 
[V:1] F,2>A,2 (3A,CC ||  
[V:2] z6 ||  
[V:1] [M:2/4]A,>>B, A,3/F,/ ||  
[V:2] [M:2/4]z4 ||  
[V:1] [M:3/4]F,2D,>F, (3F,A,A, | 
[V:2] [M:3/4]z6 | 
[V:1] F,2>D,2 (3F,D,-D, | 
[V:2] z6 | 
[V:1] C,C, C,>C, (3C,C,C, | 
[V:2] z6 | 
[V:1] C,2>A,,2 (3C,A,,-A,, ||  
[V:2] z6 ||  
[V:1] [M:2/4]F,,F,,F,,2- | 
[V:2] [M:2/4]z4 | 
[V:1] F,,4 | 
[V:2] z4 | 
[V:1] CC/C/C2 | 
[V:2] z4 | 
[V:1] C4 | 
[V:2] z4 | 
[V:1] C/C/A,/>C/ (3CCC | 
[V:2] z4 | 
[V:1] A,>B, A,3/F,/ | 
[V:2] z4 | 
[V:1] F,2F,2- ||  
[V:2] z4 ||  
[V:1] [M:3/4]F,2>A,2 (3A,CC ||  
[V:2] [M:3/4]z6 ||  
[V:1] [M:2/4]A,>>B, A,3/F,/ ||  
[V:2] [M:2/4]z4 ||  
[V:1] [M:3/4]F,2D,>F, (3F,A,A, | 
[V:2] [M:3/4]z6 | 
[V:1] F,2>D,2 (3F,D,-D, | 
[V:2] z6 | 
[V:1] C,C, C,>C, (3C,C,C, | 
[V:2] z6 | 
[V:1] C,2>A,,2 (3C,A,,A,, ||  
[V:2] z6 ||  
[V:1] [M:2/4]F,,F,,F,,2- | 
[V:2] [M:2/4]z4 | 
[V:1] F,,4 |]  
[V:2] z4 |]  


